X: 1
T:Bridge No 2
R:double jig
M:6/8
L:1/8
Q:120
K:D
AG|:FGF EFE|DFA d2A|ded cAG|F/2G/2AF GFE|!
FGF EFE|DFA def|edc ABc|1 dfe dAG:|2 dfe d2e|!
|:f2d g2d|fdB A2^A|B2B EFG|AGF GFE|!
f2d gfe|fdB A^GA|Bcd edc|1 dfe d2e:|2 dfe d2||!
